#N Gosper glider gun
#O Bill Gosper, 1970
#C explanation: The first pattern shown to grow without limit. Two oscillating halves
#C explanation: collide every thirty generations and emit a glider, forever. Conway had
#C explanation: offered fifty dollars for a proof that unbounded growth was impossible;
#C explanation: Gosper collected it by building this. Note the boundary: on a wrapping
#C explanation: board its own gliders come back and destroy it, measured at generation
#C explanation: 180 on a 60 by 40 field.
#C category: gun
#C board: 60x40
#C boundary: fixed
#C frame_range: head
#C generations: 180
#C offset: 2,2
#C core_period: 30
#C core: 0,0,26,9
x = 36, y = 9, rule = B3/S23
24bo$22bobo$12b2o6b2o12b2o$11bo3bo4b2o12b2o$2o8bo5bo3b2o$2o8bo3bob2o4bobo$10bo5bo7bo$11bo3bo$12b2o!
