#N Simkin glider gun
#O Michael Simkin, 2015
#C explanation: A glider gun built from blocks, found forty-five years after Gosper's.
#C explanation: It fires every one hundred and twenty generations, four times slower,
#C explanation: but uses fewer cells.
#C category: gun
#C board: 60x40
#C boundary: fixed
#C frame_range: head
#C generations: 180
#C offset: 2,2
#C core_period: 120
#C core: 0,0,34,12
x = 33, y = 21, rule = B3/S23
2o5b2o$2o5b2o2$4b2o$4b2o5$22b2ob2o$21bo5bo$21bo6bo2b2o$21b3o3bo3b2o$26bo4$20b2o$20bo$21b3o$23bo!
